X: 43025
T: Willy Wink's
R: polka
M: 2/4
K: Eminor
e|:dG BA/B/|dG Ge|dG BA|GE Ee|
dG BA/B/|dG GB|Ac BA|GE E2:|
|:G2 AG/A/|BE EF|GB AG|FD DF|
G2 AG/A/|Bg gc|BG AG/A/|BE E2:|

